img/icons/checkbox-empty-m.svg

<svg width="20" height="20" viewBox="0 0 20 20" fill="none" xmlns="http://www.w3.org/2000/svg">
<path d="M2.5 6.5C2.5 5.09987 2.5 4.3998 2.77248 3.86502C3.01217 3.39462 3.39462 3.01217 3.86502 2.77248C4.3998 2.5 5.09987 2.5 6.5 2.5H13.5C14.9001 2.5 15.6002 2.5 16.135 2.77248C16.6054 3.01217 16.9878 3.39462 17.2275 3.86502C17.5 4.3998 17.5 5.09987 17.5 6.5V13.5C17.5 14.9001 17.5 15.6002 17.2275 16.135C16.9878 16.6054 16.6054 16.9878 16.135 17.2275C15.6002 17.5 14.9001 17.5 13.5 17.5H6.5C5.09987 17.5 4.3998 17.5 3.86502 17.2275C3.39462 16.9878 3.01217 16.6054 2.77248 16.135C2.5 15.6002 2.5 14.9001 2.5 13.5V6.5Z" stroke="#555A65" stroke-width="1.5" stroke-linecap="round" stroke-linejoin="round"/>
</svg>

<svg width="20" height="20" fill="none" xmlns="http://www.w3.org/2000/svg"><path d="M2.5 6.5c0-1.4 0-2.1.272-2.635a2.5 2.5 0 011.093-1.093C4.4 2.5 5.1 2.5 6.5 2.5h7c1.4 0 2.1 0 2.635.272a2.5 2.5 0 011.092 1.093C17.5 4.4 17.5 5.1 17.5 6.5v7c0 1.4 0 2.1-.273 2.635a2.5 2.5 0 01-1.092 1.092c-.535.273-1.235.273-2.635.273h-7c-1.4 0-2.1 0-2.635-.273a2.5 2.5 0 01-1.093-1.092C2.5 15.6 2.5 14.9 2.5 13.5v-7z" stroke="#555A65" stroke-width="1.5" stroke-linecap="round" stroke-linejoin="round"/></svg>
